X:1
T:Title
%%score 1 { 2 | 3 }
L:1/8
Q:1/4=108
M:4/4
K:G
V:1 treble nm="Grand Piano, Soprano"
V:2 treble nm="Choir Pad, Dwelling in Me, D. Buchanan"
V:3 bass 
V:1
 [GB]4 [Gc]2 [GB]2 | [FB]3 [FA] [DG]4 | [EG]4 [DF]2 [CE]2 | [B,D]6 z2 | [A,D]4 [DF]2 [FA]2 | %5
w: By~Isaac~Hickman~Meredith * *|||||
 [DG]3 [DA] [GB]4 | [FA]4 [GB]2 [G^c]2 | [Fd]6 z2 | [Fc]4 [GB]2 [FA]2 | [DG]3 [DA] [GB]4 | %10
w: |||||
 [EA]4 [EG]2 [CE]2 | [CE]3 [B,D] [B,D]4 | [B,D]4 [DG]2 [DF]2 | [CE]4 [Ec]2 z2 | [DB]4 [DG]2 [DA]2 | %15
w: |||||
 [DG]8 |] %16
w: |
V:2
 D4 E2 D2 | D3 C[K:bass] B,4 | C4 G,2 G,2 | z8 | F,4 A,2 C2 | B,3 C[K:treble] D4 | D4 ^C2 E2 | %7
 D6 z2 | A,4 D2 C2 | B,3 C D4 | C4 C2[K:bass] G,2 | G,3 G, G,4 | G,4 G,2 G,2 | G,4 A,2 z2 | %14
 G,4 B,2 C2 | B,8 |] %16
V:3
 G,4 G,2 G,2 | D,3 D, G,4 | C,4 C,2 C,E, | G,6 z2 | D,4 D,2 D,2 | G,3 G, G,4 | A,4 A,2 A,2 | %7
 D,6 z2 | D,4 D,2 D,2 | G,3 G, G,4 | C,4 C,2 C,2 | C,3 G,, G,,4 | G,,4 B,,2 B,,2 | C,4 A,,2 z2 | %14
 D,4 D,2 D,2 | [G,,G,]8 |] %16

